packages/vibrant-icons/assets/icons/Video/Thin.svg

<svg width="24" height="24" viewBox="0 0 24 24" fill="none" xmlns="http://www.w3.org/2000/svg">
<path d="M2.5999 21.6004C2.48945 21.6004 2.3999 21.5109 2.3999 21.4004V2.60039C2.3999 2.48993 2.48945 2.40039 2.5999 2.40039H21.3999C21.5104 2.40039 21.5999 2.48993 21.5999 2.60039V21.4004C21.5999 21.5109 21.5104 21.6004 21.3999 21.6004H2.5999ZM4.0999 19.9004H19.8999V4.10039H4.0999V19.9004ZM9.6499 8.44784C9.6499 8.36961 9.73568 8.32168 9.80231 8.36268L15.5755 11.9152C15.639 11.9543 15.639 12.0465 15.5755 12.0856L9.80231 15.6381C9.73568 15.6791 9.6499 15.6312 9.6499 15.5529V8.44784Z" fill="#0C0C0C"/>
</svg>

<svg xmlns="http://www.w3.org/2000/svg" width="24" height="24" fill="none"><path fill="#0C0C0C" d="M2.6 21.6a.2.2 0 0 1-.2-.2V2.6c0-.11.09-.2.2-.2h18.8c.11 0 .2.09.2.2v18.8a.2.2 0 0 1-.2.2zm1.5-1.7h15.8V4.1H4.1zM9.65 8.448a.1.1 0 0 1 .152-.085l5.774 3.552a.1.1 0 0 1 0 .17l-5.774 3.553a.1.1 0 0 1-.152-.085z"/></svg>
